X: 1
T: Mire's
M: 4/4
L: 1/8
R: hornpipe
K: Gmaj
~G2 FG EG DE|~G2-GA (3Bcd ef|g2 gd (3efg dB|cA BG AG EF|
~G2 FG EG DE|~G2-GA (3Bcd ef|g2 gd (3efg dB|1cA FA Gc BA:|2cA FA G2 GA||
|:Bd ~d2 ed Bd|dB AB ~G2-GA|Bd ~d2 ed Bd|(3efg fa g2 gd|
Bd ~d2 ed Bd|~g2-ga bg af|g2 gf ge dB|cA BG AG EG:|
|:dg ~g2 bg ~g2|ag eg dg ba|ca fa ge dB|cA BG AGEF|
~G2 FG EG DE|~G2-GA (3Bcd ef|g2 gd (3efg dB|1cA FA G2 GA:|2cA FA GcBA||
